X:29
T: ES KUMME SECHS BOLLACHA
N: K0113
O: Europa, Mitteleuropa, Deutschland, Maehren, Kuhlaendchen
R: Kinder -, Wiegen - Lied
M: 2/4
L: 1/16
K: G
G2 | d2d2e2e2 | d4B2
G2 | d2d2e2e2 | d4B2
d2 | d3cA2B2 | c2d2B4
d2c2A2B2 | c2d2B2
d2 | d3cA2B2 | c2d2B4
d2c2A2B2 | c2d2B2

